X:2
T:Simon's Great Smile
R:Reel
C:Jerry Holland
S:Tune of the Month. March,1998
D:Some Tasty Tunes, Brenda Stubbert, 1999
A:<http://www.capebretonet.com/Music/Holland>
O:20th Century Cape Breton
N:Contacts ...
N:Bookings,Mechanicals etc.
N:..... Jerry Holland <jerry@cranfordpub.com>
N:Tune books, related recordings
N:..... Cranford Publications <http://www.cranfordpub.com>
B:Previously Unpublished.
H:Copyrights - Publisher:Fiddlesticks Music (SOCAN).
Z:This abc transcription is for personal use only
Z:provided this notice remains attached.
Z:Used by permission of the composer and publisher.
Z:Paul Stewart Cranford 
Z:W. Macaulay <wil@syndesis.com> (abcs)
Q:333
L:1/8
M:C|
K:D
|:B|AB d2 edBA|Bd e2 fede|f2 af bafd|e2 ef efdB|!
AB d2 edBA|Bd e2 fede|f2 af bafd|e2 fe d2 d:|!
|:g|fa a/a/a bafd|e2 ef efdB|Ad d/d/d edde|f2 af e2 eg|!
fa a/a/a bafd|e2 ef efdB|Ad d/d/d edcd|e2 fe d2 d:|!
